dist/img/protest.svg

<svg width="127" height="239" viewBox="0 0 127 239" fill="none" xmlns="http://www.w3.org/2000/svg">
<path d="M69.5838 5.43877H57.4073V233.507C57.4073 233.516 57.4073 233.534 57.4073 233.543C57.4073 235.809 60.132 237.643 63.5 237.643C66.859 237.643 69.5927 235.809 69.5927 233.543C69.5927 233.534 69.5927 233.516 69.5927 233.507V5.43877H69.5838Z" fill="#EFEEEC"/>
<path d="M63.5 239C59.7389 239 56.7105 237.049 56.1655 234.424L56.0762 234.379V233.588C56.0762 233.579 56.0762 233.561 56.0762 233.552V4.0993H70.9327V234.388L70.8434 234.433C70.2895 237.049 67.261 239 63.5 239ZM58.7473 233.606C58.8009 234.892 60.7306 236.303 63.4911 236.303C66.2515 236.303 68.1901 234.892 68.2348 233.606L68.2259 232.662L68.2348 232.653V6.79621H58.7473V232.653H58.7562L58.7473 233.606Z" fill="black"/>
<path d="M63.5 9.53807C66.8649 9.53807 69.5927 7.70677 69.5927 5.44776C69.5927 3.18874 66.8649 1.35744 63.5 1.35744C60.1351 1.35744 57.4073 3.18874 57.4073 5.44776C57.4073 7.70677 60.1351 9.53807 63.5 9.53807Z" fill="#EFEEEC"/>
<path d="M63.5 10.8865C59.3369 10.8865 56.0672 8.49526 56.0672 5.44775C56.0672 2.39126 59.328 0 63.5 0C67.672 0 70.9328 2.39126 70.9328 5.44775C70.9238 8.49526 67.6631 10.8865 63.5 10.8865ZM63.5 2.69691C60.7038 2.69691 58.7473 4.14425 58.7473 5.44775C58.7473 6.75126 60.6949 8.18961 63.5 8.18961C66.3052 8.18961 68.2527 6.74227 68.2527 5.44775C68.2527 4.15324 66.2962 2.69691 63.5 2.69691Z" fill="black"/>
<path d="M125.66 28.3895H1.34004V153.49H125.66V28.3895Z" fill="#EFEEEC"/>
<path d="M125.66 154.83H1.34004C0.598551 154.83 0 154.227 0 153.481V28.3895C0 27.6433 0.598551 27.041 1.34004 27.041H125.66C126.401 27.041 127 27.6433 127 28.3895V153.49C127 154.227 126.393 154.83 125.66 154.83ZM2.68008 152.133H124.32V29.7379H2.68008V152.133Z" fill="black"/>
<path d="M63.5 128.481C84.1089 128.481 100.816 111.669 100.816 90.9308C100.816 70.1925 84.1089 53.3808 63.5 53.3808C42.8912 53.3808 26.1844 70.1925 26.1844 90.9308C26.1844 111.669 42.8912 128.481 63.5 128.481Z" fill="#EFEEEC"/>
<path d="M63.5 129.829C42.1844 129.829 24.8443 112.38 24.8443 90.9308C24.8443 69.4813 42.1844 52.0323 63.5 52.0323C84.8156 52.0323 102.156 69.4813 102.156 90.9308C102.156 112.38 84.8156 129.829 63.5 129.829ZM63.5 54.7293C43.6585 54.7293 27.5244 70.9736 27.5244 90.9308C27.5244 110.888 43.6674 127.132 63.5 127.132C83.3326 127.132 99.4756 110.888 99.4756 90.9308C99.4756 70.9736 83.3326 54.7293 63.5 54.7293Z" fill="black"/>
<path d="M79.4911 57.0486L74.0238 60.3029L64.7328 57.4262L56.4693 61.939L57.6485 65.6517L64.8758 64.6089L67.9757 61.7412L71.0042 64.0066L69.5748 67.126L51.654 68.2857L50.9572 70.4163L52.3509 72.1783L46.2224 76.4304L53.8964 79.8015L59.998 73.1132L65.9121 71.3152L66.8501 75.1538L68.8423 75.2887L71.6832 70.0477L74.4705 70.5062L75.4799 74.2459L71.4688 76.0798L75.4353 80.5656L71.9065 82.876L65.921 83.766L57.4073 81.2129L52.5385 82.6692L41.8003 89.4025V100.541H45.8472L55.7188 96.9449L59.194 95.92L61.5525 97.5921L60.6502 106.033L65.5726 117.54L65.9121 120.732H68.7172L75.9266 110.25L81.9032 97.5921L84.1009 94.4637L78.562 93.0254L74.2918 84.3773L76.15 83.9098L81.0813 90.9577L84.0919 92.0005L89.1662 86.8674L84.6458 84.5211L81.5459 84.8178L82.7251 81.5545L89.1662 82.1298L97.0725 90.9577L100.735 88.5125C100.735 88.4856 99.1272 65.9664 79.4911 57.0486Z" fill="black"/>
</svg>

<svg width="127" height="239" fill="none" xmlns="http://www.w3.org/2000/svg"><path d="M69.584 5.439H57.407v228.104c0 2.266 2.725 4.1 6.093 4.1 3.359 0 6.093-1.834 6.093-4.1V5.439h-.01z" fill="#EFEEEC"/><path d="M63.5 239c-3.761 0-6.79-1.951-7.334-4.576l-.09-.045V4.099h14.857v230.289l-.09.045C70.29 237.049 67.261 239 63.5 239zm-4.753-5.394c.054 1.286 1.984 2.697 4.744 2.697s4.7-1.411 4.744-2.697l-.01-.944.01-.009V6.796h-9.488v225.857h.01l-.01.953z" fill="#000"/><path d="M63.5 9.538c3.365 0 6.093-1.831 6.093-4.09 0-2.26-2.728-4.09-6.093-4.09-3.365 0-6.093 1.83-6.093 4.09 0 2.259 2.728 4.09 6.093 4.09z" fill="#EFEEEC"/><path d="M63.5 10.886c-4.163 0-7.433-2.39-7.433-5.438C56.067 2.39 59.328 0 63.5 0s7.433 2.391 7.433 5.448c-.01 3.047-3.27 5.438-7.433 5.438zm0-8.19c-2.796 0-4.753 1.448-4.753 2.752 0 1.303 1.948 2.742 4.753 2.742s4.753-1.448 4.753-2.742c0-1.295-1.957-2.751-4.753-2.751z" fill="#000"/><path d="M125.66 28.39H1.34v125.1h124.32V28.39z" fill="#EFEEEC"/><path d="M125.66 154.83H1.34c-.741 0-1.34-.603-1.34-1.349V28.39c0-.747.599-1.349 1.34-1.349h124.32c.741 0 1.34.602 1.34 1.349v125.1c0 .737-.607 1.34-1.34 1.34zM2.68 152.133h121.64V29.738H2.68v122.395z" fill="#000"/><path d="M63.5 128.481c20.609 0 37.316-16.812 37.316-37.55 0-20.739-16.707-37.55-37.316-37.55S26.184 70.192 26.184 90.93s16.707 37.55 37.316 37.55z" fill="#EFEEEC"/><path d="M63.5 129.829c-21.316 0-38.656-17.449-38.656-38.898 0-21.45 17.34-38.899 38.656-38.899s38.656 17.45 38.656 38.899-17.34 38.898-38.656 38.898zm0-75.1c-19.842 0-35.976 16.245-35.976 36.202 0 19.957 16.143 36.201 35.976 36.201s35.976-16.244 35.976-36.201S83.333 54.729 63.5 54.729z" fill="#000"/><path d="M79.491 57.049l-5.467 3.254-9.291-2.877-8.264 4.513 1.18 3.713 7.227-1.043 3.1-2.868 3.028 2.266-1.43 3.119-17.92 1.16-.697 2.13 1.394 1.762-6.129 4.252 7.674 3.371 6.102-6.688 5.914-1.798.938 3.839 1.992.135 2.841-5.241 2.787.458 1.01 3.74-4.011 1.834 3.966 4.486-3.529 2.31-5.985.89-8.514-2.553-4.868 1.456L41.8 89.403v11.138h4.047l9.872-3.596 3.475-1.025 2.358 1.672-.902 8.441 4.923 11.507.34 3.192h2.804l7.21-10.482 5.976-12.658 2.198-3.128-5.539-1.439-4.27-8.648 1.858-.467 4.931 7.048L84.091 92l5.075-5.134-4.52-2.346-3.1.297 1.18-3.263 6.44.575 7.907 8.828 3.662-2.445c0-.027-1.608-22.547-21.244-31.464z" fill="#000"/></svg>
